!!!OTL: 2062. Marias Wanderung.
!!!ODT: 1880
!!!ARE: Europa, Mitteleuropa, Deutschland, Hessen, Taunus, Wuerges
!!!SCT: E2062
!!!TXL: @@DE
!!!YEM: Copyright 1995, estate of Helmut Schaffrath.
**kern	**text
*ICvox	*
*M3/4	*
*k[f#c#g#d#]	*
*E:	*
!LO:TX:a:t=Mäßig bewegt.	!
!LO:TX:a:t=Aus der Taunusgegend 1880.	!
{8d#L	Da
8f#J	.
=1	=1
4g#	drun-
8g#L	-ten
8aJ	.
8g#L	im
8f#J	.
=2	=2
8f#L	Tha-
8eJ	.
4e}	-le
{8g#L	geht
8aJ	der
=3	=3
4b	Mor-
8bL	-gen-
8cc#J	.
8bL	-ſtern
8aJ	.
=4	=4
(4a	auf,
4g#)}	.
{4e	da
=5	=5
8eL	ſitʒt
8cc#J	.
4cc#	ja
8bL	Ma-
8aJ	.
=6	=6
8g#L	-ri-
8bJ	.
4b}	-a
{4g#	mit
=7	=7
8bL	Je-
8aJ	.
8aL	-ſu-
8cc#J	.
8bL	-lein
8aJ	.
=8	=8
2g#}	drauf.
{4e	da
=9	=9
8eL	ſitʒt
8cc#J	.
4cc#	ja
8bL	Ma-
8aJ	.
=10	=10
8g#L	-ri-
8bJ	.
4b}	-a
{4g#	mit
=11	=11
8bL	Je-
8aJ	.
8aL	-ſu-
8cc#J	.
8bL	-lein
8aJ	.
=12	=12
2g#}	drauf.
==	==
!!!AGN: geistlich, Marien - Lied, Legende
!!!ONB: ESAC (Essen Associative Code) Database: ERK3
!!!AMT: simple triple
!!!AIN: vox
!!!EED: Helmut Schaffrath
!!!EEV: 1.0
!!!GTL: 4. Katholische Lieder: b) Marienlieder (Rufe und Legenden.)
!!!URL-scan: https://rosdok.uni-rostock.de/mcrviewer/recordIdentifier/rosdok_ppn745177999/iview2/phys_0763.iview2?x=132.9768352394408&y=-147.97096979571506&scale=0.7014306698522891&rotation=0&layout=singlePageLayout
!!!ENC: Anna Maria Matuszewska
!!!EEV: 2025/14/01
*-	*-
